P3
64 64
255
45 44 42 45 44 42 45 44 42 45 44 42 45 44 42 45 44 42 45 44 42 45 44 42 45 44 42 45 44 42 45 44 42 45 44 42 45 44 42 45 44 42 45 44 42 45 44 42 45 44 42 45 44 42 45 44 42 45 44 42 45 44 42 45 44 42 45 44 42 45 44 42 45 44 42 45 44 42 45 44 42 45 44 42 45 44 42 45 44 42 45 44 42 45 44 42 45 44 42 45 44 42 45 44 42 45 44 42 45 44 42 45 44 42 45 44 42 45 44 42 45 44 42 45 44 42 45 44 42 45 44 42 45 44 42 45 44 42 45 44 42 45 44 42 45 44 42 45 44 42 45 44 42 45 44 42 45 44 42 45 44 42 45 44 42 45 44 42 45 44 42 45 44 42 45 44 42 45 44 42 45 44 42 45 44 42 45 44 42 45 44 42 
45 44 42 45 44 42 45 44 42 45 44 42 45 44 42 45 44 42 45 44 42 45 44 42 45 44 42 45 44 42 45 44 42 45 44 42 45 44 42 45 44 42 45 44 42 45 44 42 45 44 42 45 44 42 45 44 42 45 44 42 45 44 42 45 44 42 45 44 42 45 44 42 45 44 42 45 44 42 45 44 42 45 44 42 45 44 42 45 44 42 45 44 42 45 44 42 45 44 42 45 44 42 45 44 42 45 44 42 45 44 42 45 44 42 45 44 42 45 44 42 45 44 42 45 44 42 45 44 42 45 44 42 45 44 42 45 44 42 45 44 42 45 44 42 45 44 42 45 44 42 45 44 42 45 44 42 45 44 42 45 44 42 45 44 42 45 44 42 45 44 42 45 44 42 45 44 42 45 44 42 45 44 42 45 44 42 45 44 42 45 44 42 
45 44 42 45 44 42 45 44 42 45 44 42 45 44 42 45 44 42 45 44 42 45 44 42 45 44 42 45 44 42 45 44 42 45 44 42 45 44 42 45 44 42 45 44 42 45 44 42 45 44 42 45 44 42 45 44 42 45 44 42 45 44 42 45 44 42 45 44 42 45 44 42 45 44 42 45 44 42 45 44 42 45 44 42 45 44 42 45 44 42 45 44 42 45 44 42 45 44 42 45 44 42 45 44 42 45 44 42 45 44 42 45 44 42 45 44 42 45 44 42 45 44 42 45 44 42 45 44 42 45 44 42 45 44 42 45 44 42 45 44 42 45 44 42 45 44 42 45 44 42 45 44 42 45 44 42 45 44 42 45 44 42 45 44 42 45 44 42 45 44 42 45 44 42 45 44 42 45 44 42 45 44 42 45 44 42 45 44 42 45 44 42 
45 44 42 45 44 42 45 44 42 45 44 42 45 44 42 45 44 42 45 44 42 45 44 42 45 44 42 45 44 42 45 44 42 45 44 42 45 44 42 45 44 42 45 44 42 45 44 42 45 44 42 45 44 42 45 44 42 45 44 42 45 44 42 45 44 42 45 44 42 45 44 42 45 44 42 45 44 42 45 44 42 45 44 42 45 44 42 45 44 42 45 44 42 45 44 42 45 44 42 45 44 42 45 44 42 45 44 42 45 44 42 45 44 42 45 44 42 45 44 42 45 44 42 45 44 42 45 44 42 45 44 42 45 44 42 45 44 42 45 44 42 45 44 42 45 44 42 45 44 42 45 44 42 45 44 42 45 44 42 45 44 42 45 44 42 45 44 42 45 44 42 45 44 42 45 44 42 45 44 42 45 44 42 45 44 42 45 44 42 45 44 42 
45 44 42 45 44 42 45 44 42 45 44 42 45 44 42 45 44 42 45 44 42 45 44 42 45 44 42 45 44 42 45 44 42 45 44 42 45 44 42 45 44 42 45 44 42 45 44 42 45 44 42 45 44 42 45 44 42 45 44 42 45 44 42 45 44 42 45 44 42 45 44 42 45 44 42 45 44 42 45 44 42 45 44 42 45 44 42 45 44 42 45 44 42 45 44 42 45 44 42 45 44 42 45 44 42 45 44 42 45 44 42 45 44 42 45 44 42 45 44 42 45 44 42 45 44 42 45 44 42 45 44 42 45 44 42 45 44 42 45 44 42 45 44 42 45 44 42 45 44 42 45 44 42 45 44 42 45 44 42 45 44 42 45 44 42 45 44 42 45 44 42 45 44 42 45 44 42 45 44 42 45 44 42 45 44 42 45 44 42 45 44 42 
45 44 42 45 44 42 45 44 42 45 44 42 45 44 42 45 44 42 45 44 42 45 44 42 45 44 42 45 44 42 45 44 42 45 44 42 45 44 42 45 44 42 45 44 42 45 44 42 45 44 42 45 44 42 45 44 42 45 44 42 45 44 42 45 44 42 45 44 42 45 44 42 45 44 42 45 44 42 45 44 42 45 44 42 45 44 42 45 44 42 45 44 42 45 44 42 45 44 42 45 44 42 45 44 42 45 44 42 45 44 42 45 44 42 45 44 42 45 44 42 45 44 42 45 44 42 45 44 42 45 44 42 45 44 42 45 44 42 45 44 42 45 44 42 45 44 42 45 44 42 45 44 42 45 44 42 45 44 42 45 44 42 45 44 42 45 44 42 45 44 42 45 44 42 45 44 42 45 44 42 45 44 42 45 44 42 45 44 42 45 44 42 
45 44 42 45 44 42 45 44 42 45 44 42 45 44 42 45 44 42 45 44 42 45 44 42 45 44 42 45 44 42 45 44 42 45 44 42 45 44 42 45 44 42 45 44 42 45 44 42 45 44 42 45 44 42 45 44 42 45 44 42 45 44 42 45 44 42 45 44 42 45 44 42 45 44 42 45 44 42 45 44 42 45 44 42 45 44 42 45 44 42 45 44 42 45 44 42 45 44 42 45 44 42 45 44 42 45 44 42 45 44 42 45 44 42 45 44 42 45 44 42 45 44 42 45 44 42 45 44 42 45 44 42 45 44 42 45 44 42 45 44 42 45 44 42 45 44 42 45 44 42 45 44 42 45 44 42 45 44 42 45 44 42 45 44 42 45 44 42 45 44 42 45 44 42 45 44 42 45 44 42 45 44 42 45 44 42 45 44 42 45 44 42 
45 44 42 45 44 42 45 44 42 45 44 42 45 44 42 45 44 42 45 44 42 45 44 42 45 44 42 45 44 42 45 44 42 45 44 42 45 44 42 45 44 42 45 44 42 45 44 42 45 44 42 45 44 42 45 44 42 45 44 42 45 44 42 45 44 42 45 44 42 45 44 42 45 44 42 45 44 42 45 44 42 45 44 42 45 44 42 45 44 42 45 44 42 45 44 42 45 44 42 45 44 42 45 44 42 45 44 42 45 44 42 45 44 42 45 44 42 45 44 42 45 44 42 45 44 42 45 44 42 45 44 42 45 44 42 45 44 42 45 44 42 45 44 42 45 44 42 45 44 42 45 44 42 45 44 42 45 44 42 45 44 42 45 44 42 45 44 42 45 44 42 45 44 42 45 44 42 45 44 42 45 44 42 45 44 42 45 44 42 45 44 42 
45 44 42 45 44 42 45 44 42 45 44 42 45 44 42 45 44 42 45 44 42 45 44 42 45 44 42 45 44 42 45 44 42 45 44 42 45 44 42 45 44 42 45 44 42 45 44 42 45 44 42 45 44 42 45 44 42 45 44 42 45 44 42 45 44 42 45 44 42 45 44 42 45 44 42 45 44 42 45 44 42 45 44 42 45 44 42 45 44 42 45 44 42 45 44 42 182 138 58 45 44 42 45 44 42 45 44 42 45 44 42 45 44 42 45 44 42 45 44 42 45 44 42 45 44 42 45 44 42 45 44 42 45 44 42 45 44 42 45 44 42 45 44 42 45 44 42 45 44 42 45 44 42 45 44 42 45 44 42 45 44 42 45 44 42 45 44 42 45 44 42 45 44 42 45 44 42 45 44 42 45 44 42 45 44 42 45 44 42 45 44 42 
45 44 42 45 44 42 45 44 42 45 44 42 45 44 42 45 44 42 45 44 42 45 44 42 45 44 42 45 44 42 45 44 42 45 44 42 45 44 42 45 44 42 45 44 42 45 44 42 45 44 42 45 44 42 45 44 42 45 44 42 45 44 42 45 44 42 45 44 42 45 44 42 45 44 42 45 44 42 45 44 42 45 44 42 45 44 42 45 44 42 45 44 42 45 44 42 182 138 58 45 44 42 45 44 42 45 44 42 45 44 42 45 44 42 45 44 42 45 44 42 45 44 42 45 44 42 45 44 42 45 44 42 45 44 42 45 44 42 45 44 42 45 44 42 45 44 42 45 44 42 45 44 42 45 44 42 45 44 42 45 44 42 45 44 42 45 44 42 45 44 42 45 44 42 45 44 42 45 44 42 45 44 42 45 44 42 45 44 42 45 44 42 
45 44 42 45 44 42 45 44 42 45 44 42 45 44 42 45 44 42 45 44 42 45 44 42 45 44 42 45 44 42 45 44 42 45 44 42 45 44 42 45 44 42 45 44 42 45 44 42 45 44 42 45 44 42 45 44 42 45 44 42 45 44 42 45 44 42 45 44 42 45 44 42 45 44 42 45 44 42 45 44 42 45 44 42 45 44 42 45 44 42 45 44 42 45 44 42 182 138 58 45 44 42 45 44 42 45 44 42 45 44 42 45 44 42 45 44 42 45 44 42 45 44 42 45 44 42 45 44 42 45 44 42 45 44 42 45 44 42 45 44 42 45 44 42 45 44 42 45 44 42 45 44 42 45 44 42 45 44 42 45 44 42 45 44 42 45 44 42 45 44 42 45 44 42 45 44 42 45 44 42 45 44 42 45 44 42 45 44 42 45 44 42 
45 44 42 45 44 42 45 44 42 45 44 42 45 44 42 45 44 42 45 44 42 45 44 42 45 44 42 45 44 42 45 44 42 45 44 42 45 44 42 45 44 42 45 44 42 45 44 42 45 44 42 45 44 42 45 44 42 45 44 42 45 44 42 45 44 42 45 44 42 45 44 42 45 44 42 45 44 42 45 44 42 45 44 42 45 44 42 45 44 42 45 44 42 182 138 58 182 138 58 182 138 58 45 44 42 45 44 42 45 44 42 45 44 42 45 44 42 45 44 42 45 44 42 45 44 42 45 44 42 45 44 42 45 44 42 45 44 42 45 44 42 45 44 42 45 44 42 45 44 42 45 44 42 45 44 42 45 44 42 45 44 42 45 44 42 45 44 42 45 44 42 45 44 42 45 44 42 45 44 42 45 44 42 45 44 42 45 44 42 45 44 42 
45 44 42 45 44 42 45 44 42 45 44 42 45 44 42 45 44 42 45 44 42 45 44 42 45 44 42 45 44 42 45 44 42 45 44 42 45 44 42 45 44 42 45 44 42 45 44 42 45 44 42 45 44 42 45 44 42 45 44 42 45 44 42 45 44 42 45 44 42 45 44 42 45 44 42 45 44 42 45 44 42 45 44 42 45 44 42 45 44 42 45 44 42 182 138 58 182 138 58 182 138 58 45 44 42 45 44 42 45 44 42 45 44 42 45 44 42 45 44 42 45 44 42 45 44 42 45 44 42 45 44 42 45 44 42 45 44 42 45 44 42 45 44 42 45 44 42 45 44 42 45 44 42 45 44 42 45 44 42 45 44 42 45 44 42 45 44 42 45 44 42 45 44 42 45 44 42 45 44 42 45 44 42 45 44 42 45 44 42 45 44 42 
45 44 42 45 44 42 45 44 42 45 44 42 45 44 42 45 44 42 45 44 42 45 44 42 45 44 42 45 44 42 45 44 42 45 44 42 45 44 42 45 44 42 45 44 42 45 44 42 45 44 42 45 44 42 45 44 42 45 44 42 45 44 42 45 44 42 45 44 42 45 44 42 45 44 42 45 44 42 45 44 42 45 44 42 45 44 42 45 44 42 182 138 58 182 138 58 182 138 58 182 138 58 182 138 58 45 44 42 45 44 42 45 44 42 45 44 42 45 44 42 45 44 42 45 44 42 45 44 42 45 44 42 45 44 42 45 44 42 45 44 42 45 44 42 45 44 42 45 44 42 45 44 42 45 44 42 45 44 42 45 44 42 45 44 42 45 44 42 45 44 42 45 44 42 45 44 42 45 44 42 45 44 42 45 44 42 45 44 42 45 44 42 
45 44 42 45 44 42 45 44 42 45 44 42 45 44 42 45 44 42 45 44 42 45 44 42 45 44 42 45 44 42 45 44 42 45 44 42 45 44 42 45 44 42 45 44 42 45 44 42 45 44 42 45 44 42 45 44 42 45 44 42 45 44 42 45 44 42 45 44 42 45 44 42 45 44 42 45 44 42 45 44 42 45 44 42 45 44 42 45 44 42 182 138 58 182 138 58 182 138 58 182 138 58 182 138 58 45 44 42 45 44 42 45 44 42 45 44 42 45 44 42 45 44 42 45 44 42 45 44 42 45 44 42 45 44 42 45 44 42 45 44 42 45 44 42 45 44 42 45 44 42 45 44 42 45 44 42 45 44 42 45 44 42 45 44 42 45 44 42 45 44 42 45 44 42 45 44 42 45 44 42 45 44 42 45 44 42 45 44 42 45 44 42 
45 44 42 45 44 42 45 44 42 45 44 42 45 44 42 45 44 42 45 44 42 45 44 42 45 44 42 45 44 42 45 44 42 45 44 42 45 44 42 45 44 42 45 44 42 45 44 42 45 44 42 45 44 42 45 44 42 45 44 42 45 44 42 45 44 42 45 44 42 45 44 42 45 44 42 45 44 42 45 44 42 45 44 42 45 44 42 182 138 58 182 138 58 182 138 58 182 138 58 182 138 58 182 138 58 182 138 58 45 44 42 45 44 42 45 44 42 45 44 42 45 44 42 45 44 42 45 44 42 45 44 42 45 44 42 45 44 42 45 44 42 45 44 42 45 44 42 45 44 42 45 44 42 45 44 42 45 44 42 45 44 42 45 44 42 45 44 42 45 44 42 45 44 42 45 44 42 45 44 42 45 44 42 45 44 42 45 44 42 45 44 42 
45 44 42 45 44 42 45 44 42 45 44 42 45 44 42 45 44 42 45 44 42 45 44 42 45 44 42 45 44 42 45 44 42 45 44 42 45 44 42 45 44 42 45 44 42 45 44 42 45 44 42 45 44 42 45 44 42 45 44 42 45 44 42 45 44 42 45 44 42 45 44 42 45 44 42 45 44 42 45 44 42 45 44 42 45 44 42 182 138 58 182 138 58 182 138 58 182 138 58 182 138 58 182 138 58 182 138 58 45 44 42 45 44 42 45 44 42 45 44 42 45 44 42 45 44 42 45 44 42 45 44 42 45 44 42 45 44 42 45 44 42 45 44 42 45 44 42 45 44 42 45 44 42 45 44 42 45 44 42 45 44 42 45 44 42 45 44 42 45 44 42 45 44 42 45 44 42 45 44 42 45 44 42 45 44 42 45 44 42 45 44 42 
45 44 42 45 44 42 45 44 42 45 44 42 45 44 42 45 44 42 45 44 42 45 44 42 45 44 42 45 44 42 45 44 42 45 44 42 45 44 42 45 44 42 45 44 42 45 44 42 45 44 42 45 44 42 45 44 42 45 44 42 45 44 42 45 44 42 45 44 42 45 44 42 45 44 42 45 44 42 45 44 42 45 44 42 45 44 42 182 138 58 182 138 58 182 138 58 182 138 58 182 138 58 182 138 58 182 138 58 45 44 42 45 44 42 45 44 42 45 44 42 45 44 42 45 44 42 45 44 42 45 44 42 45 44 42 45 44 42 45 44 42 45 44 42 45 44 42 45 44 42 45 44 42 45 44 42 45 44 42 45 44 42 45 44 42 45 44 42 45 44 42 45 44 42 45 44 42 45 44 42 45 44 42 45 44 42 45 44 42 45 44 42 
45 44 42 45 44 42 45 44 42 45 44 42 45 44 42 45 44 42 45 44 42 45 44 42 45 44 42 45 44 42 45 44 42 45 44 42 45 44 42 45 44 42 45 44 42 45 44 42 45 44 42 45 44 42 45 44 42 45 44 42 45 44 42 45 44 42 45 44 42 45 44 42 45 44 42 45 44 42 45 44 42 45 44 42 182 138 58 182 138 58 182 138 58 182 138 58 182 138 58 182 138 58 182 138 58 182 138 58 182 138 58 45 44 42 45 44 42 45 44 42 45 44 42 45 44 42 45 44 42 45 44 42 45 44 42 45 44 42 45 44 42 45 44 42 45 44 42 45 44 42 45 44 42 45 44 42 45 44 42 45 44 42 45 44 42 45 44 42 45 44 42 45 44 42 45 44 42 45 44 42 45 44 42 45 44 42 45 44 42 45 44 42 
45 44 42 45 44 42 45 44 42 45 44 42 45 44 42 45 44 42 45 44 42 45 44 42 45 44 42 45 44 42 45 44 42 45 44 42 45 44 42 45 44 42 45 44 42 45 44 42 45 44 42 45 44 42 45 44 42 45 44 42 45 44 42 45 44 42 45 44 42 45 44 42 45 44 42 45 44 42 45 44 42 45 44 42 182 138 58 182 138 58 182 138 58 182 138 58 182 138 58 182 138 58 182 138 58 182 138 58 182 138 58 45 44 42 45 44 42 45 44 42 45 44 42 45 44 42 45 44 42 45 44 42 45 44 42 45 44 42 45 44 42 45 44 42 45 44 42 45 44 42 45 44 42 45 44 42 45 44 42 45 44 42 45 44 42 45 44 42 45 44 42 45 44 42 45 44 42 45 44 42 45 44 42 45 44 42 45 44 42 45 44 42 
45 44 42 45 44 42 45 44 42 45 44 42 45 44 42 45 44 42 45 44 42 45 44 42 45 44 42 45 44 42 45 44 42 45 44 42 45 44 42 45 44 42 45 44 42 45 44 42 45 44 42 45 44 42 45 44 42 45 44 42 45 44 42 45 44 42 45 44 42 45 44 42 45 44 42 45 44 42 45 44 42 182 138 58 182 138 58 182 138 58 182 138 58 182 138 58 182 138 58 182 138 58 182 138 58 182 138 58 182 138 58 182 138 58 45 44 42 45 44 42 45 44 42 45 44 42 45 44 42 45 44 42 45 44 42 45 44 42 45 44 42 45 44 42 45 44 42 45 44 42 45 44 42 45 44 42 45 44 42 45 44 42 45 44 42 45 44 42 45 44 42 45 44 42 45 44 42 45 44 42 45 44 42 45 44 42 45 44 42 45 44 42 
45 44 42 45 44 42 45 44 42 45 44 42 45 44 42 45 44 42 45 44 42 45 44 42 45 44 42 45 44 42 45 44 42 45 44 42 45 44 42 45 44 42 45 44 42 45 44 42 45 44 42 45 44 42 45 44 42 45 44 42 45 44 42 45 44 42 45 44 42 45 44 42 45 44 42 45 44 42 45 44 42 182 138 58 182 138 58 182 138 58 182 138 58 182 138 58 182 138 58 182 138 58 182 138 58 182 138 58 182 138 58 182 138 58 45 44 42 45 44 42 45 44 42 45 44 42 45 44 42 45 44 42 45 44 42 45 44 42 45 44 42 45 44 42 45 44 42 45 44 42 45 44 42 45 44 42 45 44 42 45 44 42 45 44 42 45 44 42 45 44 42 45 44 42 45 44 42 45 44 42 45 44 42 45 44 42 45 44 42 45 44 42 
45 44 42 45 44 42 45 44 42 45 44 42 45 44 42 45 44 42 45 44 42 45 44 42 45 44 42 45 44 42 45 44 42 45 44 42 45 44 42 45 44 42 45 44 42 45 44 42 45 44 42 45 44 42 45 44 42 45 44 42 45 44 42 45 44 42 45 44 42 45 44 42 45 44 42 45 44 42 182 138 58 182 138 58 182 138 58 182 138 58 182 138 58 182 138 58 182 138 58 182 138 58 182 138 58 182 138 58 182 138 58 182 138 58 182 138 58 45 44 42 45 44 42 45 44 42 45 44 42 45 44 42 45 44 42 45 44 42 45 44 42 45 44 42 45 44 42 45 44 42 45 44 42 45 44 42 45 44 42 45 44 42 45 44 42 45 44 42 45 44 42 45 44 42 45 44 42 45 44 42 45 44 42 45 44 42 45 44 42 45 44 42 
45 44 42 45 44 42 45 44 42 45 44 42 45 44 42 45 44 42 45 44 42 45 44 42 45 44 42 45 44 42 45 44 42 45 44 42 45 44 42 45 44 42 45 44 42 45 44 42 45 44 42 45 44 42 45 44 42 45 44 42 45 44 42 45 44 42 45 44 42 45 44 42 45 44 42 45 44 42 182 138 58 182 138 58 182 138 58 182 138 58 182 138 58 182 138 58 182 138 58 182 138 58 182 138 58 182 138 58 182 138 58 182 138 58 182 138 58 45 44 42 45 44 42 45 44 42 45 44 42 45 44 42 45 44 42 45 44 42 45 44 42 45 44 42 45 44 42 45 44 42 45 44 42 45 44 42 45 44 42 45 44 42 45 44 42 45 44 42 45 44 42 45 44 42 45 44 42 45 44 42 45 44 42 45 44 42 45 44 42 45 44 42 
45 44 42 45 44 42 45 44 42 45 44 42 45 44 42 45 44 42 45 44 42 45 44 42 45 44 42 45 44 42 45 44 42 45 44 42 45 44 42 45 44 42 45 44 42 45 44 42 45 44 42 45 44 42 45 44 42 45 44 42 45 44 42 45 44 42 45 44 42 45 44 42 45 44 42 182 138 58 182 138 58 182 138 58 182 138 58 182 138 58 182 138 58 182 138 58 182 138 58 182 138 58 182 138 58 182 138 58 182 138 58 182 138 58 182 138 58 182 138 58 45 44 42 45 44 42 45 44 42 45 44 42 45 44 42 45 44 42 45 44 42 45 44 42 45 44 42 45 44 42 45 44 42 45 44 42 45 44 42 45 44 42 45 44 42 45 44 42 45 44 42 45 44 42 45 44 42 45 44 42 45 44 42 45 44 42 45 44 42 45 44 42 
45 44 42 45 44 42 45 44 42 45 44 42 45 44 42 45 44 42 45 44 42 45 44 42 45 44 42 45 44 42 45 44 42 45 44 42 45 44 42 45 44 42 45 44 42 45 44 42 45 44 42 45 44 42 45 44 42 45 44 42 45 44 42 45 44 42 45 44 42 45 44 42 45 44 42 182 138 58 182 138 58 182 138 58 182 138 58 182 138 58 182 138 58 182 138 58 45 44 42 182 138 58 182 138 58 182 138 58 182 138 58 182 138 58 182 138 58 182 138 58 45 44 42 45 44 42 45 44 42 45 44 42 45 44 42 45 44 42 45 44 42 45 44 42 45 44 42 45 44 42 45 44 42 45 44 42 45 44 42 45 44 42 45 44 42 45 44 42 45 44 42 45 44 42 45 44 42 45 44 42 45 44 42 45 44 42 45 44 42 45 44 42 
45 44 42 45 44 42 45 44 42 45 44 42 45 44 42 45 44 42 45 44 42 45 44 42 45 44 42 45 44 42 45 44 42 45 44 42 45 44 42 45 44 42 45 44 42 45 44 42 45 44 42 45 44 42 45 44 42 45 44 42 45 44 42 45 44 42 45 44 42 45 44 42 45 44 42 182 138 58 182 138 58 182 138 58 182 138 58 182 138 58 182 138 58 182 138 58 45 44 42 182 138 58 182 138 58 182 138 58 182 138 58 182 138 58 182 138 58 182 138 58 45 44 42 45 44 42 45 44 42 45 44 42 45 44 42 45 44 42 45 44 42 45 44 42 45 44 42 45 44 42 45 44 42 45 44 42 45 44 42 45 44 42 45 44 42 45 44 42 45 44 42 45 44 42 45 44 42 45 44 42 45 44 42 45 44 42 45 44 42 45 44 42 
45 44 42 45 44 42 45 44 42 45 44 42 45 44 42 45 44 42 45 44 42 45 44 42 45 44 42 45 44 42 45 44 42 45 44 42 45 44 42 45 44 42 45 44 42 45 44 42 45 44 42 45 44 42 45 44 42 45 44 42 45 44 42 45 44 42 45 44 42 45 44 42 182 138 58 182 138 58 182 138 58 182 138 58 182 138 58 182 138 58 182 138 58 45 44 42 45 44 42 45 44 42 182 138 58 182 138 58 182 138 58 182 138 58 182 138 58 182 138 58 182 138 58 45 44 42 45 44 42 45 44 42 45 44 42 45 44 42 45 44 42 45 44 42 45 44 42 45 44 42 45 44 42 45 44 42 45 44 42 45 44 42 45 44 42 45 44 42 45 44 42 45 44 42 45 44 42 45 44 42 45 44 42 45 44 42 45 44 42 45 44 42 
45 44 42 45 44 42 45 44 42 45 44 42 45 44 42 45 44 42 45 44 42 45 44 42 45 44 42 45 44 42 45 44 42 45 44 42 45 44 42 45 44 42 45 44 42 45 44 42 45 44 42 45 44 42 45 44 42 45 44 42 45 44 42 45 44 42 45 44 42 45 44 42 182 138 58 182 138 58 182 138 58 182 138 58 182 138 58 182 138 58 182 138 58 45 44 42 45 44 42 45 44 42 182 138 58 182 138 58 182 138 58 182 138 58 182 138 58 182 138 58 182 138 58 45 44 42 45 44 42 45 44 42 45 44 42 45 44 42 45 44 42 45 44 42 45 44 42 45 44 42 45 44 42 45 44 42 45 44 42 45 44 42 45 44 42 45 44 42 45 44 42 45 44 42 45 44 42 45 44 42 45 44 42 45 44 42 45 44 42 45 44 42 
45 44 42 45 44 42 45 44 42 45 44 42 45 44 42 45 44 42 45 44 42 45 44 42 45 44 42 45 44 42 45 44 42 45 44 42 45 44 42 45 44 42 45 44 42 45 44 42 45 44 42 45 44 42 45 44 42 45 44 42 45 44 42 45 44 42 45 44 42 182 138 58 182 138 58 182 138 58 182 138 58 182 138 58 182 138 58 182 138 58 45 44 42 45 44 42 45 44 42 45 44 42 45 44 42 182 138 58 182 138 58 182 138 58 182 138 58 182 138 58 182 138 58 182 138 58 45 44 42 45 44 42 45 44 42 45 44 42 45 44 42 45 44 42 45 44 42 45 44 42 45 44 42 45 44 42 45 44 42 45 44 42 45 44 42 45 44 42 45 44 42 45 44 42 45 44 42 45 44 42 45 44 42 45 44 42 45 44 42 45 44 42 
45 44 42 45 44 42 45 44 42 45 44 42 45 44 42 45 44 42 45 44 42 45 44 42 45 44 42 45 44 42 45 44 42 45 44 42 45 44 42 45 44 42 45 44 42 45 44 42 45 44 42 45 44 42 45 44 42 45 44 42 45 44 42 45 44 42 45 44 42 182 138 58 182 138 58 182 138 58 182 138 58 182 138 58 182 138 58 182 138 58 45 44 42 45 44 42 45 44 42 45 44 42 45 44 42 182 138 58 182 138 58 182 138 58 182 138 58 182 138 58 182 138 58 182 138 58 45 44 42 45 44 42 45 44 42 45 44 42 45 44 42 45 44 42 45 44 42 45 44 42 45 44 42 45 44 42 45 44 42 45 44 42 45 44 42 45 44 42 45 44 42 45 44 42 45 44 42 45 44 42 45 44 42 45 44 42 45 44 42 45 44 42 
45 44 42 45 44 42 45 44 42 45 44 42 45 44 42 45 44 42 45 44 42 45 44 42 45 44 42 45 44 42 45 44 42 45 44 42 45 44 42 45 44 42 45 44 42 45 44 42 45 44 42 45 44 42 45 44 42 45 44 42 45 44 42 45 44 42 182 138 58 182 138 58 182 138 58 182 138 58 182 138 58 182 138 58 182 138 58 45 44 42 45 44 42 45 44 42 45 44 42 45 44 42 45 44 42 45 44 42 182 138 58 182 138 58 182 138 58 182 138 58 182 138 58 182 138 58 182 138 58 45 44 42 45 44 42 45 44 42 45 44 42 45 44 42 45 44 42 45 44 42 45 44 42 45 44 42 45 44 42 45 44 42 45 44 42 45 44 42 45 44 42 45 44 42 45 44 42 45 44 42 45 44 42 45 44 42 45 44 42 45 44 42 
45 44 42 45 44 42 45 44 42 45 44 42 45 44 42 45 44 42 45 44 42 45 44 42 45 44 42 45 44 42 45 44 42 45 44 42 45 44 42 45 44 42 45 44 42 45 44 42 45 44 42 45 44 42 45 44 42 45 44 42 45 44 42 45 44 42 182 138 58 182 138 58 182 138 58 182 138 58 182 138 58 182 138 58 182 138 58 45 44 42 45 44 42 45 44 42 45 44 42 45 44 42 45 44 42 45 44 42 182 138 58 182 138 58 182 138 58 182 138 58 182 138 58 182 138 58 182 138 58 45 44 42 45 44 42 45 44 42 45 44 42 45 44 42 45 44 42 45 44 42 45 44 42 45 44 42 45 44 42 45 44 42 45 44 42 45 44 42 45 44 42 45 44 42 45 44 42 45 44 42 45 44 42 45 44 42 45 44 42 45 44 42 
45 44 42 45 44 42 45 44 42 45 44 42 45 44 42 45 44 42 45 44 42 45 44 42 45 44 42 45 44 42 45 44 42 45 44 42 45 44 42 45 44 42 45 44 42 45 44 42 45 44 42 45 44 42 45 44 42 45 44 42 45 44 42 45 44 42 182 138 58 182 138 58 182 138 58 182 138 58 182 138 58 182 138 58 182 138 58 45 44 42 45 44 42 45 44 42 45 44 42 45 44 42 45 44 42 45 44 42 182 138 58 182 138 58 182 138 58 182 138 58 182 138 58 182 138 58 182 138 58 45 44 42 45 44 42 45 44 42 45 44 42 45 44 42 45 44 42 45 44 42 45 44 42 45 44 42 45 44 42 45 44 42 45 44 42 45 44 42 45 44 42 45 44 42 45 44 42 45 44 42 45 44 42 45 44 42 45 44 42 45 44 42 
45 44 42 45 44 42 45 44 42 45 44 42 45 44 42 45 44 42 45 44 42 45 44 42 45 44 42 45 44 42 45 44 42 45 44 42 45 44 42 45 44 42 45 44 42 45 44 42 45 44 42 45 44 42 45 44 42 45 44 42 45 44 42 182 138 58 182 138 58 182 138 58 182 138 58 182 138 58 182 138 58 182 138 58 182 138 58 182 138 58 182 138 58 182 138 58 182 138 58 182 138 58 182 138 58 182 138 58 182 138 58 182 138 58 182 138 58 182 138 58 182 138 58 182 138 58 182 138 58 182 138 58 45 44 42 45 44 42 45 44 42 45 44 42 45 44 42 45 44 42 45 44 42 45 44 42 45 44 42 45 44 42 45 44 42 45 44 42 45 44 42 45 44 42 45 44 42 45 44 42 45 44 42 45 44 42 45 44 42 45 44 42 
45 44 42 45 44 42 45 44 42 45 44 42 45 44 42 45 44 42 45 44 42 45 44 42 45 44 42 45 44 42 45 44 42 45 44 42 45 44 42 45 44 42 45 44 42 45 44 42 45 44 42 45 44 42 45 44 42 45 44 42 45 44 42 182 138 58 182 138 58 182 138 58 182 138 58 182 138 58 182 138 58 182 138 58 182 138 58 182 138 58 182 138 58 182 138 58 182 138 58 182 138 58 182 138 58 182 138 58 182 138 58 182 138 58 182 138 58 182 138 58 182 138 58 182 138 58 182 138 58 182 138 58 45 44 42 45 44 42 45 44 42 45 44 42 45 44 42 45 44 42 45 44 42 45 44 42 45 44 42 45 44 42 45 44 42 45 44 42 45 44 42 45 44 42 45 44 42 45 44 42 45 44 42 45 44 42 45 44 42 45 44 42 
45 44 42 45 44 42 45 44 42 45 44 42 45 44 42 45 44 42 45 44 42 45 44 42 45 44 42 45 44 42 45 44 42 45 44 42 45 44 42 45 44 42 45 44 42 45 44 42 45 44 42 45 44 42 45 44 42 45 44 42 182 138 58 182 138 58 182 138 58 182 138 58 182 138 58 182 138 58 182 138 58 182 138 58 182 138 58 182 138 58 182 138 58 182 138 58 182 138 58 182 138 58 182 138 58 182 138 58 182 138 58 182 138 58 182 138 58 182 138 58 182 138 58 182 138 58 182 138 58 182 138 58 182 138 58 45 44 42 45 44 42 45 44 42 45 44 42 45 44 42 45 44 42 45 44 42 45 44 42 45 44 42 45 44 42 45 44 42 45 44 42 45 44 42 45 44 42 45 44 42 45 44 42 45 44 42 45 44 42 45 44 42 
45 44 42 45 44 42 45 44 42 45 44 42 45 44 42 45 44 42 45 44 42 45 44 42 45 44 42 45 44 42 45 44 42 45 44 42 45 44 42 45 44 42 45 44 42 45 44 42 45 44 42 45 44 42 45 44 42 45 44 42 182 138 58 182 138 58 182 138 58 182 138 58 182 138 58 182 138 58 182 138 58 182 138 58 182 138 58 182 138 58 182 138 58 182 138 58 182 138 58 182 138 58 182 138 58 182 138 58 182 138 58 182 138 58 182 138 58 182 138 58 182 138 58 182 138 58 182 138 58 182 138 58 182 138 58 45 44 42 45 44 42 45 44 42 45 44 42 45 44 42 45 44 42 45 44 42 45 44 42 45 44 42 45 44 42 45 44 42 45 44 42 45 44 42 45 44 42 45 44 42 45 44 42 45 44 42 45 44 42 45 44 42 
45 44 42 45 44 42 45 44 42 45 44 42 45 44 42 45 44 42 45 44 42 45 44 42 45 44 42 45 44 42 45 44 42 45 44 42 45 44 42 45 44 42 45 44 42 45 44 42 45 44 42 45 44 42 45 44 42 182 138 58 182 138 58 182 138 58 182 138 58 182 138 58 182 138 58 182 138 58 182 138 58 182 138 58 182 138 58 182 138 58 182 138 58 182 138 58 182 138 58 182 138 58 182 138 58 182 138 58 182 138 58 182 138 58 182 138 58 182 138 58 182 138 58 182 138 58 182 138 58 182 138 58 182 138 58 182 138 58 45 44 42 45 44 42 45 44 42 45 44 42 45 44 42 45 44 42 45 44 42 45 44 42 45 44 42 45 44 42 45 44 42 45 44 42 45 44 42 45 44 42 45 44 42 45 44 42 45 44 42 45 44 42 
45 44 42 45 44 42 45 44 42 45 44 42 45 44 42 45 44 42 45 44 42 45 44 42 45 44 42 45 44 42 45 44 42 45 44 42 45 44 42 45 44 42 45 44 42 45 44 42 45 44 42 45 44 42 45 44 42 182 138 58 182 138 58 182 138 58 182 138 58 182 138 58 182 138 58 182 138 58 182 138 58 182 138 58 182 138 58 182 138 58 182 138 58 182 138 58 182 138 58 182 138 58 182 138 58 182 138 58 182 138 58 182 138 58 182 138 58 182 138 58 182 138 58 182 138 58 182 138 58 182 138 58 182 138 58 182 138 58 45 44 42 45 44 42 45 44 42 45 44 42 45 44 42 45 44 42 45 44 42 45 44 42 45 44 42 45 44 42 45 44 42 45 44 42 45 44 42 45 44 42 45 44 42 45 44 42 45 44 42 45 44 42 
45 44 42 45 44 42 45 44 42 45 44 42 45 44 42 45 44 42 45 44 42 45 44 42 45 44 42 45 44 42 45 44 42 45 44 42 45 44 42 45 44 42 45 44 42 45 44 42 45 44 42 45 44 42 182 138 58 182 138 58 182 138 58 182 138 58 182 138 58 182 138 58 182 138 58 45 44 42 45 44 42 45 44 42 45 44 42 182 138 58 182 138 58 182 138 58 182 138 58 182 138 58 182 138 58 182 138 58 45 44 42 45 44 42 45 44 42 45 44 42 182 138 58 182 138 58 182 138 58 182 138 58 182 138 58 182 138 58 182 138 58 45 44 42 45 44 42 45 44 42 45 44 42 45 44 42 45 44 42 45 44 42 45 44 42 45 44 42 45 44 42 45 44 42 45 44 42 45 44 42 45 44 42 45 44 42 45 44 42 45 44 42 
45 44 42 45 44 42 45 44 42 45 44 42 45 44 42 45 44 42 45 44 42 45 44 42 45 44 42 45 44 42 45 44 42 45 44 42 45 44 42 45 44 42 45 44 42 45 44 42 45 44 42 45 44 42 182 138 58 182 138 58 182 138 58 182 138 58 182 138 58 182 138 58 182 138 58 45 44 42 45 44 42 45 44 42 45 44 42 182 138 58 182 138 58 182 138 58 182 138 58 182 138 58 182 138 58 182 138 58 45 44 42 45 44 42 45 44 42 45 44 42 182 138 58 182 138 58 182 138 58 182 138 58 182 138 58 182 138 58 182 138 58 45 44 42 45 44 42 45 44 42 45 44 42 45 44 42 45 44 42 45 44 42 45 44 42 45 44 42 45 44 42 45 44 42 45 44 42 45 44 42 45 44 42 45 44 42 45 44 42 45 44 42 
45 44 42 45 44 42 45 44 42 45 44 42 45 44 42 45 44 42 45 44 42 45 44 42 45 44 42 45 44 42 45 44 42 45 44 42 45 44 42 45 44 42 45 44 42 45 44 42 45 44 42 45 44 42 182 138 58 182 138 58 182 138 58 182 138 58 182 138 58 182 138 58 182 138 58 45 44 42 45 44 42 45 44 42 45 44 42 182 138 58 182 138 58 182 138 58 182 138 58 182 138 58 182 138 58 182 138 58 45 44 42 45 44 42 45 44 42 45 44 42 182 138 58 182 138 58 182 138 58 182 138 58 182 138 58 182 138 58 182 138 58 45 44 42 45 44 42 45 44 42 45 44 42 45 44 42 45 44 42 45 44 42 45 44 42 45 44 42 45 44 42 45 44 42 45 44 42 45 44 42 45 44 42 45 44 42 45 44 42 45 44 42 
45 44 42 45 44 42 45 44 42 45 44 42 45 44 42 45 44 42 45 44 42 45 44 42 45 44 42 45 44 42 45 44 42 45 44 42 45 44 42 45 44 42 45 44 42 45 44 42 45 44 42 182 138 58 182 138 58 182 138 58 182 138 58 182 138 58 182 138 58 182 138 58 45 44 42 45 44 42 45 44 42 45 44 42 45 44 42 182 138 58 182 138 58 182 138 58 182 138 58 182 138 58 182 138 58 182 138 58 45 44 42 45 44 42 45 44 42 45 44 42 45 44 42 182 138 58 182 138 58 182 138 58 182 138 58 182 138 58 182 138 58 182 138 58 45 44 42 45 44 42 45 44 42 45 44 42 45 44 42 45 44 42 45 44 42 45 44 42 45 44 42 45 44 42 45 44 42 45 44 42 45 44 42 45 44 42 45 44 42 45 44 42 
45 44 42 45 44 42 45 44 42 45 44 42 45 44 42 45 44 42 45 44 42 45 44 42 45 44 42 45 44 42 45 44 42 45 44 42 45 44 42 45 44 42 45 44 42 45 44 42 45 44 42 182 138 58 182 138 58 182 138 58 182 138 58 182 138 58 182 138 58 182 138 58 45 44 42 45 44 42 45 44 42 45 44 42 45 44 42 182 138 58 182 138 58 182 138 58 182 138 58 182 138 58 182 138 58 182 138 58 45 44 42 45 44 42 45 44 42 45 44 42 45 44 42 182 138 58 182 138 58 182 138 58 182 138 58 182 138 58 182 138 58 182 138 58 45 44 42 45 44 42 45 44 42 45 44 42 45 44 42 45 44 42 45 44 42 45 44 42 45 44 42 45 44 42 45 44 42 45 44 42 45 44 42 45 44 42 45 44 42 45 44 42 
45 44 42 45 44 42 45 44 42 45 44 42 45 44 42 45 44 42 45 44 42 45 44 42 45 44 42 45 44 42 45 44 42 45 44 42 45 44 42 45 44 42 45 44 42 45 44 42 182 138 58 182 138 58 182 138 58 182 138 58 182 138 58 182 138 58 182 138 58 45 44 42 45 44 42 45 44 42 45 44 42 45 44 42 45 44 42 182 138 58 182 138 58 182 138 58 182 138 58 182 138 58 182 138 58 182 138 58 45 44 42 45 44 42 45 44 42 45 44 42 45 44 42 45 44 42 182 138 58 182 138 58 182 138 58 182 138 58 182 138 58 182 138 58 182 138 58 45 44 42 45 44 42 45 44 42 45 44 42 45 44 42 45 44 42 45 44 42 45 44 42 45 44 42 45 44 42 45 44 42 45 44 42 45 44 42 45 44 42 45 44 42 
45 44 42 45 44 42 45 44 42 45 44 42 45 44 42 45 44 42 45 44 42 45 44 42 45 44 42 45 44 42 45 44 42 45 44 42 45 44 42 45 44 42 45 44 42 45 44 42 182 138 58 182 138 58 182 138 58 182 138 58 182 138 58 182 138 58 182 138 58 45 44 42 45 44 42 45 44 42 45 44 42 45 44 42 45 44 42 182 138 58 182 138 58 182 138 58 182 138 58 182 138 58 182 138 58 182 138 58 45 44 42 45 44 42 45 44 42 45 44 42 45 44 42 45 44 42 182 138 58 182 138 58 182 138 58 182 138 58 182 138 58 182 138 58 182 138 58 45 44 42 45 44 42 45 44 42 45 44 42 45 44 42 45 44 42 45 44 42 45 44 42 45 44 42 45 44 42 45 44 42 45 44 42 45 44 42 45 44 42 45 44 42 
45 44 42 45 44 42 45 44 42 45 44 42 45 44 42 45 44 42 45 44 42 45 44 42 45 44 42 45 44 42 45 44 42 45 44 42 45 44 42 45 44 42 45 44 42 182 138 58 182 138 58 182 138 58 182 138 58 182 138 58 182 138 58 182 138 58 45 44 42 45 44 42 45 44 42 45 44 42 45 44 42 45 44 42 45 44 42 182 138 58 182 138 58 182 138 58 182 138 58 182 138 58 182 138 58 182 138 58 45 44 42 45 44 42 45 44 42 45 44 42 45 44 42 45 44 42 45 44 42 182 138 58 182 138 58 182 138 58 182 138 58 182 138 58 182 138 58 182 138 58 45 44 42 45 44 42 45 44 42 45 44 42 45 44 42 45 44 42 45 44 42 45 44 42 45 44 42 45 44 42 45 44 42 45 44 42 45 44 42 45 44 42 
45 44 42 45 44 42 45 44 42 45 44 42 45 44 42 45 44 42 45 44 42 45 44 42 45 44 42 45 44 42 45 44 42 45 44 42 45 44 42 45 44 42 45 44 42 182 138 58 182 138 58 182 138 58 182 138 58 182 138 58 182 138 58 182 138 58 45 44 42 45 44 42 45 44 42 45 44 42 45 44 42 45 44 42 45 44 42 182 138 58 182 138 58 182 138 58 182 138 58 182 138 58 182 138 58 182 138 58 45 44 42 45 44 42 45 44 42 45 44 42 45 44 42 45 44 42 45 44 42 182 138 58 182 138 58 182 138 58 182 138 58 182 138 58 182 138 58 182 138 58 45 44 42 45 44 42 45 44 42 45 44 42 45 44 42 45 44 42 45 44 42 45 44 42 45 44 42 45 44 42 45 44 42 45 44 42 45 44 42 45 44 42 
45 44 42 45 44 42 45 44 42 45 44 42 45 44 42 45 44 42 45 44 42 45 44 42 45 44 42 45 44 42 45 44 42 45 44 42 45 44 42 45 44 42 45 44 42 182 138 58 182 138 58 182 138 58 182 138 58 182 138 58 182 138 58 182 138 58 45 44 42 45 44 42 45 44 42 45 44 42 45 44 42 45 44 42 45 44 42 182 138 58 182 138 58 182 138 58 182 138 58 182 138 58 182 138 58 182 138 58 45 44 42 45 44 42 45 44 42 45 44 42 45 44 42 45 44 42 45 44 42 182 138 58 182 138 58 182 138 58 182 138 58 182 138 58 182 138 58 182 138 58 45 44 42 45 44 42 45 44 42 45 44 42 45 44 42 45 44 42 45 44 42 45 44 42 45 44 42 45 44 42 45 44 42 45 44 42 45 44 42 45 44 42 
45 44 42 45 44 42 45 44 42 45 44 42 45 44 42 45 44 42 45 44 42 45 44 42 45 44 42 45 44 42 45 44 42 45 44 42 45 44 42 45 44 42 182 138 58 182 138 58 182 138 58 182 138 58 182 138 58 182 138 58 182 138 58 45 44 42 45 44 42 45 44 42 45 44 42 45 44 42 45 44 42 45 44 42 45 44 42 182 138 58 182 138 58 182 138 58 182 138 58 182 138 58 182 138 58 182 138 58 45 44 42 45 44 42 45 44 42 45 44 42 45 44 42 45 44 42 45 44 42 45 44 42 182 138 58 182 138 58 182 138 58 182 138 58 182 138 58 182 138 58 182 138 58 45 44 42 45 44 42 45 44 42 45 44 42 45 44 42 45 44 42 45 44 42 45 44 42 45 44 42 45 44 42 45 44 42 45 44 42 45 44 42 
45 44 42 45 44 42 45 44 42 45 44 42 45 44 42 45 44 42 45 44 42 45 44 42 45 44 42 45 44 42 45 44 42 45 44 42 45 44 42 45 44 42 182 138 58 182 138 58 182 138 58 182 138 58 182 138 58 182 138 58 182 138 58 45 44 42 45 44 42 45 44 42 45 44 42 45 44 42 45 44 42 45 44 42 45 44 42 182 138 58 182 138 58 182 138 58 182 138 58 182 138 58 182 138 58 182 138 58 45 44 42 45 44 42 45 44 42 45 44 42 45 44 42 45 44 42 45 44 42 45 44 42 182 138 58 182 138 58 182 138 58 182 138 58 182 138 58 182 138 58 182 138 58 45 44 42 45 44 42 45 44 42 45 44 42 45 44 42 45 44 42 45 44 42 45 44 42 45 44 42 45 44 42 45 44 42 45 44 42 45 44 42 
45 44 42 45 44 42 45 44 42 45 44 42 45 44 42 45 44 42 45 44 42 45 44 42 45 44 42 45 44 42 45 44 42 45 44 42 45 44 42 182 138 58 182 138 58 182 138 58 182 138 58 182 138 58 182 138 58 182 138 58 45 44 42 45 44 42 45 44 42 45 44 42 45 44 42 45 44 42 45 44 42 45 44 42 45 44 42 182 138 58 182 138 58 182 138 58 182 138 58 182 138 58 182 138 58 182 138 58 45 44 42 45 44 42 45 44 42 45 44 42 45 44 42 45 44 42 45 44 42 45 44 42 45 44 42 182 138 58 182 138 58 182 138 58 182 138 58 182 138 58 182 138 58 182 138 58 45 44 42 45 44 42 45 44 42 45 44 42 45 44 42 45 44 42 45 44 42 45 44 42 45 44 42 45 44 42 45 44 42 45 44 42 
45 44 42 45 44 42 45 44 42 45 44 42 45 44 42 45 44 42 45 44 42 45 44 42 45 44 42 45 44 42 45 44 42 45 44 42 45 44 42 182 138 58 182 138 58 182 138 58 182 138 58 182 138 58 182 138 58 182 138 58 45 44 42 45 44 42 45 44 42 45 44 42 45 44 42 45 44 42 45 44 42 45 44 42 45 44 42 182 138 58 182 138 58 182 138 58 182 138 58 182 138 58 182 138 58 182 138 58 45 44 42 45 44 42 45 44 42 45 44 42 45 44 42 45 44 42 45 44 42 45 44 42 45 44 42 182 138 58 182 138 58 182 138 58 182 138 58 182 138 58 182 138 58 182 138 58 45 44 42 45 44 42 45 44 42 45 44 42 45 44 42 45 44 42 45 44 42 45 44 42 45 44 42 45 44 42 45 44 42 45 44 42 
45 44 42 45 44 42 45 44 42 45 44 42 45 44 42 45 44 42 45 44 42 45 44 42 45 44 42 45 44 42 45 44 42 45 44 42 182 138 58 182 138 58 182 138 58 182 138 58 182 138 58 182 138 58 182 138 58 45 44 42 45 44 42 45 44 42 45 44 42 45 44 42 45 44 42 45 44 42 45 44 42 45 44 42 45 44 42 182 138 58 182 138 58 182 138 58 182 138 58 182 138 58 182 138 58 182 138 58 45 44 42 45 44 42 45 44 42 45 44 42 45 44 42 45 44 42 45 44 42 45 44 42 45 44 42 45 44 42 182 138 58 182 138 58 182 138 58 182 138 58 182 138 58 182 138 58 182 138 58 45 44 42 45 44 42 45 44 42 45 44 42 45 44 42 45 44 42 45 44 42 45 44 42 45 44 42 45 44 42 45 44 42 
45 44 42 45 44 42 45 44 42 45 44 42 45 44 42 45 44 42 45 44 42 45 44 42 45 44 42 45 44 42 45 44 42 45 44 42 182 138 58 182 138 58 182 138 58 182 138 58 182 138 58 182 138 58 182 138 58 45 44 42 45 44 42 45 44 42 45 44 42 45 44 42 45 44 42 45 44 42 45 44 42 45 44 42 45 44 42 182 138 58 182 138 58 182 138 58 182 138 58 182 138 58 182 138 58 182 138 58 45 44 42 45 44 42 45 44 42 45 44 42 45 44 42 45 44 42 45 44 42 45 44 42 45 44 42 45 44 42 182 138 58 182 138 58 182 138 58 182 138 58 182 138 58 182 138 58 182 138 58 45 44 42 45 44 42 45 44 42 45 44 42 45 44 42 45 44 42 45 44 42 45 44 42 45 44 42 45 44 42 45 44 42 
45 44 42 45 44 42 45 44 42 45 44 42 45 44 42 45 44 42 45 44 42 45 44 42 45 44 42 45 44 42 45 44 42 182 138 58 182 138 58 182 138 58 182 138 58 182 138 58 182 138 58 182 138 58 45 44 42 45 44 42 45 44 42 45 44 42 45 44 42 45 44 42 45 44 42 45 44 42 45 44 42 45 44 42 45 44 42 182 138 58 182 138 58 182 138 58 182 138 58 182 138 58 182 138 58 182 138 58 45 44 42 45 44 42 45 44 42 45 44 42 45 44 42 45 44 42 45 44 42 45 44 42 45 44 42 45 44 42 45 44 42 182 138 58 182 138 58 182 138 58 182 138 58 182 138 58 182 138 58 182 138 58 45 44 42 45 44 42 45 44 42 45 44 42 45 44 42 45 44 42 45 44 42 45 44 42 45 44 42 45 44 42 
45 44 42 45 44 42 45 44 42 45 44 42 45 44 42 45 44 42 45 44 42 45 44 42 45 44 42 45 44 42 45 44 42 182 138 58 182 138 58 182 138 58 182 138 58 182 138 58 182 138 58 182 138 58 45 44 42 45 44 42 45 44 42 45 44 42 45 44 42 45 44 42 45 44 42 45 44 42 45 44 42 45 44 42 45 44 42 45 44 42 45 44 42 45 44 42 45 44 42 45 44 42 45 44 42 45 44 42 45 44 42 45 44 42 45 44 42 45 44 42 45 44 42 45 44 42 45 44 42 45 44 42 45 44 42 45 44 42 45 44 42 182 138 58 182 138 58 182 138 58 182 138 58 182 138 58 182 138 58 182 138 58 45 44 42 45 44 42 45 44 42 45 44 42 45 44 42 45 44 42 45 44 42 45 44 42 45 44 42 45 44 42 
45 44 42 45 44 42 45 44 42 45 44 42 45 44 42 45 44 42 45 44 42 45 44 42 45 44 42 45 44 42 45 44 42 182 138 58 182 138 58 182 138 58 182 138 58 182 138 58 182 138 58 182 138 58 45 44 42 45 44 42 45 44 42 45 44 42 45 44 42 45 44 42 45 44 42 45 44 42 45 44 42 45 44 42 45 44 42 45 44 42 45 44 42 45 44 42 45 44 42 45 44 42 45 44 42 45 44 42 45 44 42 45 44 42 45 44 42 45 44 42 45 44 42 45 44 42 45 44 42 45 44 42 45 44 42 45 44 42 45 44 42 182 138 58 182 138 58 182 138 58 182 138 58 182 138 58 182 138 58 182 138 58 45 44 42 45 44 42 45 44 42 45 44 42 45 44 42 45 44 42 45 44 42 45 44 42 45 44 42 45 44 42 
45 44 42 45 44 42 45 44 42 45 44 42 45 44 42 45 44 42 45 44 42 45 44 42 45 44 42 45 44 42 182 138 58 182 138 58 182 138 58 182 138 58 182 138 58 182 138 58 182 138 58 45 44 42 45 44 42 45 44 42 45 44 42 45 44 42 45 44 42 45 44 42 45 44 42 45 44 42 45 44 42 45 44 42 45 44 42 45 44 42 45 44 42 45 44 42 45 44 42 45 44 42 45 44 42 45 44 42 45 44 42 45 44 42 45 44 42 45 44 42 45 44 42 45 44 42 45 44 42 45 44 42 45 44 42 45 44 42 45 44 42 45 44 42 182 138 58 182 138 58 182 138 58 182 138 58 182 138 58 182 138 58 182 138 58 45 44 42 45 44 42 45 44 42 45 44 42 45 44 42 45 44 42 45 44 42 45 44 42 45 44 42 
45 44 42 45 44 42 45 44 42 45 44 42 45 44 42 45 44 42 45 44 42 45 44 42 45 44 42 45 44 42 182 138 58 182 138 58 182 138 58 182 138 58 182 138 58 182 138 58 182 138 58 45 44 42 45 44 42 45 44 42 45 44 42 45 44 42 45 44 42 45 44 42 45 44 42 45 44 42 45 44 42 45 44 42 45 44 42 45 44 42 45 44 42 45 44 42 45 44 42 45 44 42 45 44 42 45 44 42 45 44 42 45 44 42 45 44 42 45 44 42 45 44 42 45 44 42 45 44 42 45 44 42 45 44 42 45 44 42 45 44 42 45 44 42 182 138 58 182 138 58 182 138 58 182 138 58 182 138 58 182 138 58 182 138 58 45 44 42 45 44 42 45 44 42 45 44 42 45 44 42 45 44 42 45 44 42 45 44 42 45 44 42 
45 44 42 45 44 42 45 44 42 45 44 42 45 44 42 45 44 42 45 44 42 45 44 42 45 44 42 182 138 58 182 138 58 182 138 58 182 138 58 182 138 58 182 138 58 182 138 58 45 44 42 45 44 42 45 44 42 45 44 42 45 44 42 45 44 42 45 44 42 45 44 42 45 44 42 45 44 42 45 44 42 45 44 42 45 44 42 45 44 42 45 44 42 45 44 42 45 44 42 45 44 42 45 44 42 45 44 42 45 44 42 45 44 42 45 44 42 45 44 42 45 44 42 45 44 42 45 44 42 45 44 42 45 44 42 45 44 42 45 44 42 45 44 42 45 44 42 182 138 58 182 138 58 182 138 58 182 138 58 182 138 58 182 138 58 182 138 58 45 44 42 45 44 42 45 44 42 45 44 42 45 44 42 45 44 42 45 44 42 45 44 42 
45 44 42 45 44 42 45 44 42 45 44 42 45 44 42 45 44 42 45 44 42 45 44 42 45 44 42 182 138 58 182 138 58 182 138 58 182 138 58 182 138 58 182 138 58 182 138 58 45 44 42 45 44 42 45 44 42 45 44 42 45 44 42 45 44 42 45 44 42 45 44 42 45 44 42 45 44 42 45 44 42 45 44 42 45 44 42 45 44 42 45 44 42 45 44 42 45 44 42 45 44 42 45 44 42 45 44 42 45 44 42 45 44 42 45 44 42 45 44 42 45 44 42 45 44 42 45 44 42 45 44 42 45 44 42 45 44 42 45 44 42 45 44 42 45 44 42 182 138 58 182 138 58 182 138 58 182 138 58 182 138 58 182 138 58 182 138 58 45 44 42 45 44 42 45 44 42 45 44 42 45 44 42 45 44 42 45 44 42 45 44 42 
45 44 42 45 44 42 45 44 42 45 44 42 45 44 42 45 44 42 45 44 42 45 44 42 182 138 58 182 138 58 182 138 58 182 138 58 182 138 58 182 138 58 182 138 58 45 44 42 45 44 42 45 44 42 45 44 42 45 44 42 45 44 42 45 44 42 45 44 42 45 44 42 45 44 42 45 44 42 45 44 42 45 44 42 45 44 42 45 44 42 45 44 42 45 44 42 45 44 42 45 44 42 45 44 42 45 44 42 45 44 42 45 44 42 45 44 42 45 44 42 45 44 42 45 44 42 45 44 42 45 44 42 45 44 42 45 44 42 45 44 42 45 44 42 45 44 42 45 44 42 182 138 58 182 138 58 182 138 58 182 138 58 182 138 58 182 138 58 182 138 58 45 44 42 45 44 42 45 44 42 45 44 42 45 44 42 45 44 42 45 44 42 
